packages/gestalt-icons-android/vr-theme/ic_vr_sticker_gestalt.svg

<svg width="24" height="24" viewBox="0 0 24 24" fill="none" xmlns="http://www.w3.org/2000/svg">
<path fill-rule="evenodd" clip-rule="evenodd" d="M5 1C2.79086 1 1 2.79086 1 5V19C1 21.2091 2.79086 23 5 23H10V21H5C3.89543 21 3 20.1046 3 19V5C3 3.89543 3.89543 3 5 3H19C20.1046 3 21 3.89543 21 5V11C21 11.5523 20.5523 12 20 12H16C14.3231 12 12.8872 13.0319 12.2927 14.4953C10.8571 14.4303 9.59643 13.6933 8.81762 12.5873L7.18238 13.7389C8.26716 15.2793 10.0079 16.3294 12 16.481V23H12.7574C13.8182 23 14.8356 22.5786 15.5858 21.8284L21.8284 15.5858C22.5786 14.8356 23 13.8182 23 12.7574V5C23 2.79086 21.2091 1 19 1H5ZM20.5671 14H16C14.8954 14 14 14.8954 14 16V20.5671C14.0598 20.5197 14.1171 20.4687 14.1716 20.4142L20.4142 14.1716C20.4687 14.1171 20.5197 14.0598 20.5671 14Z" fill="black"/>
<path d="M7.5 11C8.32843 11 9 10.3284 9 9.5C9 8.67157 8.32843 8 7.5 8C6.67157 8 6 8.67157 6 9.5C6 10.3284 6.67157 11 7.5 11Z" fill="black"/>
<path d="M18 9.5C18 10.3284 17.3284 11 16.5 11C15.6716 11 15 10.3284 15 9.5C15 8.67157 15.6716 8 16.5 8C17.3284 8 18 8.67157 18 9.5Z" fill="black"/>
</svg>

<svg xmlns="http://www.w3.org/2000/svg" width="24" height="24"><path d="M5 1a4 4 0 0 0-4 4v14a4 4 0 0 0 4 4h5v-2H5a2 2 0 0 1-2-2V5c0-1.1.9-2 2-2h14a2 2 0 0 1 2 2v6a1 1 0 0 1-1 1h-4a4 4 0 0 0-3.7 2.5 4.5 4.5 0 0 1-3.48-1.91l-1.64 1.15A6.5 6.5 0 0 0 12 16.48V23h.76a4 4 0 0 0 2.83-1.17l6.24-6.24A4 4 0 0 0 23 12.76V5a4 4 0 0 0-4-4zm15.41 13.17-6.24 6.24-.17.16V16c0-1.1.9-2 2-2h4.57zM7.5 11a1.5 1.5 0 1 0 0-3 1.5 1.5 0 0 0 0 3m9-3a1.5 1.5 0 1 0 0 3 1.5 1.5 0 0 0 0-3"/></svg>
